omega/web/assets/images/sports/quasar-foot.svg

<svg enable-background="new 0 0 512 512" fill="#830001" height="512" viewBox="0 0 512 512" width="512" xmlns="http://www.w3.org/2000/svg"><path d="m256 46.952c-115.454 0-209.047 93.594-209.047 209.048s93.594 209.049 209.047 209.049c115.454 0 209.049-93.595 209.049-209.049s-93.595-209.048-209.049-209.048m111.987 276.293-59.259-8.356-35.812-92.844 43.747-57.562 76.017 16.225 24.888 66.706c-8.503 25.929-34.694 58.618-49.581 75.831m-283.255-143.607 46.469-45.825 46.9 7.7v64.708l-50.824 63.806-36.417-5.749-9.305-77.105c1.003-2.542 2.068-5.051 3.177-7.535m171.745-111.115 17.43 12.565-12.335 23.103-77.972 27.521-44.773-7.352 8.083-20.847c30.733-22.024 68.395-34.996 109.09-34.996.16 0 .317.005.477.006m-4.593 304.332c-29.955 1.227-55.093-4.854-72.188-10.903-12.468-4.412-22.238-9.317-28.636-12.933-11.851-21.953-15.979-55.17-17.292-70.189l49.355-61.96 79.389 7.56 36.426 94.426zm-102.615 37.286c-22.235-24.757-6.82-41.766 2.506-48.722 6.288 3.232 14.357 6.914 24.005 10.352 16.53 5.888 40.166 11.813 68.325 11.813 3.787 0 7.658-.109 11.601-.339l24.056 28.751-27.366 31.441c-38.284-.721-73.755-12.919-103.127-33.296m139.013 8.153c11.176-2.274 53.261-11.853 77.234-31.371l15.396 8.873c-30.696 27.447-70.48 44.934-114.286 47.381zm113.007-280.783-9.71 32.162-76.212-16.266-43.144-46.739 12.097-22.656 40.603-2.417c30.036 11.879 56.264 31.298 76.366 55.916m-327.438 73.967 6.62 54.844-10.469 13.355c-.978-7.755-1.484-15.657-1.484-23.678-.001-15.342 1.856-30.248 5.333-44.521m315.064 176.74-20.911-12.052 2.869-40.172c12.43-13.855 41.092-47.6 53.727-77.36l18.453 9.959c-3.092 46.578-23.182 88.506-54.138 119.625"/></svg>

<?xml version="1.0" encoding="utf-8"?>
<!-- Generator: Adobe Illustrator 14.0.0, SVG Export Plug-In . SVG Version: 6.00 Build 43363)  -->
<!DOCTYPE svg PUBLIC "-//W3C//DTD SVG 1.1//EN" "http://www.w3.org/Graphics/SVG/1.1/DTD/svg11.dtd">
<svg version="1.1" xmlns="http://www.w3.org/2000/svg" xmlns:xlink="http://www.w3.org/1999/xlink" x="0px" y="0px" width="512px"
	 height="512px" viewBox="0 0 512 512" enable-background="new 0 0 512 512" xml:space="preserve" fill="#830001">
<g id="Layer_1">
</g>
<g id="amfb">
	<path d="M256,46.952C140.546,46.952,46.953,140.546,46.953,256c0,115.454,93.594,209.049,209.047,209.049
		c115.454,0,209.049-93.595,209.049-209.049C465.049,140.546,371.454,46.952,256,46.952 M367.987,323.245l-59.259-8.356
		l-35.812-92.844l43.747-57.562l76.017,16.225l24.888,66.706C409.065,273.343,382.874,306.032,367.987,323.245 M84.732,179.638
		l46.469-45.825l46.9,7.7v64.708l-50.824,63.806l-36.417-5.749l-9.305-77.105C82.558,184.631,83.623,182.122,84.732,179.638
		 M256.477,68.523l17.43,12.565l-12.335,23.103L183.6,131.712l-44.773-7.352l8.083-20.847C177.643,81.489,215.305,68.517,256,68.517
		C256.16,68.517,256.317,68.522,256.477,68.523 M251.884,372.855c-29.955,1.227-55.093-4.854-72.188-10.903
		c-12.468-4.412-22.238-9.317-28.636-12.933c-11.851-21.953-15.979-55.17-17.292-70.189l49.355-61.96l79.389,7.56l36.426,94.426
		L251.884,372.855z M149.269,410.141c-22.235-24.757-6.82-41.766,2.506-48.722c6.288,3.232,14.357,6.914,24.005,10.352
		c16.53,5.888,40.166,11.813,68.325,11.813c3.787,0,7.658-0.109,11.601-0.339l24.056,28.751l-27.366,31.441
		C214.112,442.716,178.641,430.518,149.269,410.141 M288.282,418.294c11.176-2.274,53.261-11.853,77.234-31.371l15.396,8.873
		c-30.696,27.447-70.48,44.934-114.286,47.381L288.282,418.294z M401.289,137.511l-9.71,32.162l-76.212-16.266l-43.144-46.739
		l12.097-22.656l40.603-2.417C354.959,93.474,381.187,112.893,401.289,137.511 M73.851,211.478l6.62,54.844l-10.469,13.355
		c-0.978-7.755-1.484-15.657-1.484-23.678C68.517,240.657,70.374,225.751,73.851,211.478 M388.915,388.218l-20.911-12.052
		l2.869-40.172c12.43-13.855,41.092-47.6,53.727-77.36l18.453,9.959C439.961,315.171,419.871,357.099,388.915,388.218"/>
</g>
</svg>
